X: 4553
T: Boston Life
R: jig
M: 6/8
K: Gmajor
G,B,D GBd|b3- bfa|gfg Bcd|c3- cBA|
DFA d^cd|f^ef a2 g|1 fef ABc|ed^c dBG:|2 fed c'fa|g3- g||
GB/c/d gdB|Ace a2 g|faf ABc|ed^c d2 B|
DG/A/B dBG|Ace a2 g|1 fed c'fa|g3- g:|2 f/g/ag fc'a|g3- g||
DGB GB/c/d|b3- bfa|gfg Bcd|c3- cBA|
DFA d^cd|f3 a2 g|1 fef ABc|ed^c d:|2 fed c'fa|g3- g||
GB/c/d gdB|Ace a2 g|f/g/af ABc|ed^c dBG|
DG/A/B dBG|AB/c/e a^ga|1 fed c'fa|g3- g:|2 f/g/ag fc'a|g3- g||

